X: 98
T: Etude No. 6	 Op. 10
C: F. Chopin
%%abc-version 2.0
%%abcx-abcm2ps-target-version 5.9.1 (29 Sep 2008)
%%abc-creator hum2abc beta
%%abcx-conversion-date 2021/10/03 11:23:29
%%abc-edited-by Emilia Ziętek
%%abc-edited-by Leszek Kubiak
%%abcx-initial-encoding-date 2018-09-24
%%humdrum-veritas 2080106415
%%humdrum-veritas-data 3278301403
%%linebreak <none>
%%barnumbers 0
L: 1/16
M: 6/8
N: Derived from 010_1-6-1b-KI-006.krn
P: Douxe GRANDE ETUDES pour le pianoforte
Q: "[quarter-dot]=69." 3/8=69
%%staves {1 2}
V: 1 clef=treble
V: 2 clef=bass
K: Gb
[V:1] G2 [I:setbarnb 1]| 
[V:2] z2 | 
[V:1] G6-G4FE- | 
[V:2] B,C=A,CB,G, B,CA,CB,E & E,12 | 
[V:1] B6A6 & E8-E3F- | 
[V:2] CDB,DCA, CDB,DCA,- & F,12 | 
[V:1] c6-c4BF & F12 | 
[V:2] A,B,=G,B,A,F, A,B,=G,B,A,F & =D,12 | 
[V:1] B12 & _F8-F3_E- | 
[V:2] =G,A,^F,A,G,=E, G,A,^F,A,=G,_E & _D,12 | 
[V:1] e4>-e4dcAE & E12 | 
[V:2] =G,A,^F,A,=G,_E, A,B,G,B,A,E & C,12 | 
[V:1] !accent!G4-GFE6 & =D6x6 | 
[V:2] A,B,=G,B,A,F, _G,A,F,A,G,E, & B,,6C,6 | 
[V:1] !accent![_F6C6][E6=C6] | 
[V:2] A,B,=G,B,A,_F, _G,A,=F,A,G,C & A,,6=A,,6 | 
[V:1] {/E}=D4>[E4C4][=E2=C2]F2 & B,6x4_D=D | 
[V:2] F,G,=E,G,F,A, G,__B, =G,_B, A,C & B,,12 | 
[V:1] !accent!G6G4FE- & E6x6 | 
[V:2] B,C=A,CB,G, B,CA,CB,E & E,12 | 
[V:1] !accent!B6A6 & E8-E3F- | 
[V:2] CDB,DCA, CDB,DCA,- & F,12 | 
[V:1] c6-c4BF & F12 | 
[V:2] A,B,=G,B,A,F, A,B,G,B,A,F & =D,12 | 
[V:1] B12 & _F8-F3_E- | 
[V:2] =G,A,^F,A,G,=E, G,A,F,A,G,_E & D,12 | 
[V:1] !accent!e4>-e4dcAE & E12 | 
[V:2] =G,A,^F,A,G,E, A,B,G,B,A,E & C,8x2 A,2- | 
[V:1] G4-GFE6 & =D6x6 | 
[V:2] A,B,=G,B,A,F, _G,A,F,A,G,E, & B,,6C,6 | 
[V:1] _F6=D4-DE & C6A,6 | 
[V:2] A,B,=G,B,A,_F, =F,G,=E,G,=F,B,,- & A,,6B,,6 | 
[V:1] [E6G,6]z4z2 | 
[V:2] B,,C,=A,,C,B,,G,, E,,F,,=D,,F,,E,,C,, & E,,4x2x6 | 
[V:1] [F6E6][F4=D4][=G2_D2] & B,C=A,CB,F, B,CA,CB,F, | 
[V:2] x6x4x F,- & [B,,6B,,,6]B,,6 | 
[V:1] [A6=G6C6A,6][A6F6=D6A,6] | 
[V:2] F,=G,=E,G,F,=C, =B,,C,^A,,C,B,,=B,,, & F,,6x6 | 
[V:1] [=G6F6][=G4=E4][=A2_E2] & =DE^CED=G, =CD=B,DC=G, | 
[V:2] x6x4x =G,- & C,,6C,6 | 
[V:1] [B6=A6=D6B,6][B4-=G4=E4-B,4-][A2E2A,2] | 
[V:2] =G,=A,^F,A,=G,=D, ^C,D,^B,,D,C,^^F,, & =G,,4x2x6 | 
[V:1]  [K:E] [B6E6]A4G2 & B,FDFEB, EFDFEB, | 
[V:2]  [K:E] G,,6[C,6C,,6] | 
[V:1] [G6E6][F6E6] & CD^B,DCA, CDB,DCF, | 
[V:2] [F,,6F,,,6][G,,4G,,,4][A,,2A,,,2] | 
[V:1] [A6E6][G4D4][F2D2] & CD^B,DCF, =B,C=A,CB,F, | 
[V:2] B,,6B,,4B,,2 & B,,,12 | 
[V:1] [F4D4][G2E2][G6E6] & B,CA,CB,G, B,CA,CB,G, | 
[V:2] [B,,12E,,12] | 
[V:1] !accent![G6F6][G4E4][G2E2] & DE^^CEDG, ^CD^B,DCG, | 
[V:2] [^B,,6^B,,,6][C,6C,,6] | 
[V:1] [c6G6][^B4G4]z2 & DE^^CEDG, DECEDG, | 
[V:2] G,,12 & x4x G,x6 | 
[V:1] [G6F6][G4E4][G2E2] & DE^^CEDG, ^CD^B,DCG, | 
[V:2] [^B,,6^B,,,6][C,6C,,6] | 
[V:1] [e6^B6][d6B6] & ^GA^^FAGD GAFAGD | 
[V:2] [G,,12G,,,12] | 
[V:1]  [K:Gb] [A6G6][c4A4][c2A2] & E_F=DFEG, =FG=EGFC | 
[V:2]  [K:Gb] [C,6C,,6][E,6E,,6] | 
[V:1] [c4A4][B2A2][d4B4][d2B2] & FG=EGFB, =GA^FAGD | 
[V:2] [=D,6=D,,6][F,6F,,6] | 
[V:1] [d4B4][=c2B2][e4c4][e2c2] & =GA^FAG=C =AB^GBAE | 
[V:2] [=E,6=E,,6][=G,4=G,,4][_G,2_G,,2] | 
[V:1] [g6=c6][f6c6] & =AB^GBA_G AB^GBA^F | 
[V:2] [E,12E,,12] | 
[V:1] [B6A6][B4A4][B2=G2] & =FG=EGFB, _FG_EG=EB, | 
[V:2] [=D,6=D,,6][_D,6_D,,6] | 
[V:1] [B6=G6][=A6_G6] & EF=DFEB, _EFDFE=A, | 
[V:2] [=C,12=C,,12] | 
[V:1] [=A6G6]!accent![_A4=F4][A2F2] & EF=DFE=A, DE^CEDA, | 
[V:2] [_C,12_C,,12] | 
[V:1] [_A6_F6][=G6F6] & DE=CEDA, DECED=G, | 
[V:2] [B,,12B,,,12] | 
[V:1] [=G6=E6][G4E4][G2E2] & ^C^D^B,DC=G, =C=D=B,DCG, | 
[V:2] [=A,,12=A,,,12]- | 
[V:1] !accent![=G6^D6][^F6D6] & =B,=C^A,CB,^F, B,=C^A,CB,^F, | 
[V:2] [=A,,12=A,,,12] | 
[V:1] !accent![_G6=D6][F4D4][F2D2] & _B,C=A,CB,=F, B,CA,CB,F, | 
[V:2] [_B,,12_B,,,12]- | 
[V:1] [F6=C6][F6=D6] | 
[V:2] =A,B,^G,B,A,F, B,_C=A,CB,F, & [B,,12B,,,12] | 
[V:1] G6-G4FE- | 
[V:2] B,C=A,CB,G, B,CA,CB,E & E,12 | 
[V:1] B6A6 & E8E3F- | 
[V:2] CDB,DCA, CDB,DCA,- & F,12 | 
[V:1] !accent!c6-c6 & F8x2 BF | 
[V:2] A,B,=G,B,A,F, A,B,G,B,A,F & =D,12 | 
[V:1] B12 & _F8-F3E- | 
[V:2] =G,A,^F,A,=G,=E, =G,A,F,A,=G,E & D,8x2 =G,2 | 
[V:1] e4>-e4dcAE & E8x4 | 
[V:2] =G,A,^F,A,=G,_E, A,B,=G,B,A,E & C,12 | 
[V:1] !accent!G4-GFE6 & =D6x6 | 
[V:2] A,B,=G,B,A,F, _G,A,F,A,G,E, & B,,6C,6 | 
[V:1] !accent![_F6C6]=D4-D3/E/ & x6B,6 | 
[V:2] A,B,=G,B,A,_F, =F,_G,=E,G,F,B,, & A,,6B,,6 | 
[V:1] [_F4C4]x2=D4-D3/E/ & x6B,6 | 
[V:2] A,B,=G,B,A,_F, =F,_G,=E,G,F,B,, & A,,6B,,6 | 
[V:1] [_F4C4]>[^c4=E4^C4][^G2E2][=A2E2] | 
[V:2] A,B,=G,B,A,_F, =A,=E, =B,E, ^CE,- & A,,4>=A,,4=B,,2^C,2 | 
[V:1] AG!accent!_F4E4=D2 & C6CB,=A,B,3 | 
[V:2] F,_F,E,F,G,A,x4=F,G,- & A,,6!accent!B,,6 | 
[V:1] E12- & G,4x8 | 
[V:2] B,,_C,B,,=D,E, F,G, C,B,,D,E, F, & E,,12- | 
[V:1] E12- | 
[V:2] G, C,B,,=D,E, F,G, C,B,,D,E, F, & E,,8-B,,4- | 
[V:1] !fermata!E12 |]  
[V:2] !accent!=G,12 & !fermata![B,,12E,,12] |]
